X: 31192
T: Paddy Fahey's
R: reel
M: 4/4
K: Fmajor
|:fedg fdcA|F{/G}FAF cFAF|fedg {/g}fdcA|FFAc dGde|
fedg (3gfd cA|F{/G}FAF cFAF|agfa g2 (3fed|1 c2 Ac dGde:|2 c2 Ac dGGA||
|:B2 GD BGEF|FcAF cAcd|~B2 GD BGEF|FdcA dGGA|
turn!B2 GD BGEG|FcAF cAAd|ag (3fga f2 (3fed|1 c2 Ac dGGA:|2 c2 Ac dGde||

